public/img/SVGS/login.svg

<svg height="40" viewBox="0 0 .8 .8" width="40" xmlns="http://www.w3.org/2000/svg"><path d="m0 0h.8v.8h-.8z" fill="none"/><path d="m.7.7v-.6h-.3v-.1h.4v.8h-.4v-.1zm-.35-.05.25-.25-.25-.25-.071.071.13.129h-.409v.1h.409l-.129.129z"/></svg>

<svg
      width="40"
      height="40"
      viewBox="0 0 0.8 0.8"
      xmlns="http://www.w3.org/2000/svg"
       className="text-gray-900 dark:text-gray-100 fill-current"
    >
      <path fill="none" d="M0 0h.8v.8H0z" />
      <path d="M.7.7V.1H.4V0h.4v.8H.4V.7zM.35.65.6.4.35.15.279.221l.13.129H0v.1h.409L.28.579z" />
    </svg>
